src/lib/packages/icons/src/assets/line/message-question.svg

<svg width="24" height="24" viewBox="0 0 24 24" fill="none" xmlns="http://www.w3.org/2000/svg">
<path d="M18 2.25H6C3.582 2.25 2.25 3.582 2.25 6V21C2.25 21.303 2.43289 21.577 2.71289 21.693C2.80589 21.732 2.903 21.75 3 21.75C3.195 21.75 3.38703 21.674 3.53003 21.53L6.31006 18.75H18C20.418 18.75 21.75 17.418 21.75 15V6C21.75 3.582 20.418 2.25 18 2.25ZM20.25 15C20.25 16.577 19.577 17.25 18 17.25H6C5.801 17.25 5.60997 17.329 5.46997 17.47L3.75 19.1899V6C3.75 4.423 4.423 3.75 6 3.75H18C19.577 3.75 20.25 4.423 20.25 6V15ZM14.584 8.40503C14.769 9.45703 14.329 10.397 13.345 11.051C12.789 11.421 12.713 11.608 12.71 11.616C12.597 11.918 12.3051 12.1121 11.9971 12.1121C11.9151 12.1121 11.833 12.098 11.752 12.069C11.367 11.932 11.1581 11.523 11.2891 11.135C11.4921 10.535 12.0849 10.087 12.5149 9.802C13.1509 9.379 13.1579 8.95004 13.1079 8.66504C13.0299 8.22404 12.6529 7.84604 12.2109 7.76904C11.8749 7.70804 11.5381 7.79494 11.2781 8.01294C11.0221 8.22794 10.876 8.542 10.876 8.875C10.876 9.289 10.54 9.625 10.126 9.625C9.71198 9.625 9.37598 9.289 9.37598 8.875C9.37598 8.097 9.71796 7.36401 10.314 6.86401C10.91 6.36401 11.6939 6.15402 12.4709 6.29102C13.5279 6.47702 14.397 7.34603 14.584 8.40503ZM13.02 14C13.02 14.552 12.573 15 12.02 15C11.468 15 11.0149 14.552 11.0149 14C11.0149 13.448 11.458 13 12.01 13H12.02C12.572 13 13.02 13.448 13.02 14Z" fill="currentColor"/>
</svg>

<svg xmlns="http://www.w3.org/2000/svg" width="24" height="24" fill="none"><path fill="currentColor" d="M18 2.25H6C3.582 2.25 2.25 3.582 2.25 6v15a.75.75 0 0 0 1.28.53l2.78-2.78H18c2.418 0 3.75-1.332 3.75-3.75V6c0-2.418-1.332-3.75-3.75-3.75ZM20.25 15c0 1.577-.673 2.25-2.25 2.25H6a.747.747 0 0 0-.53.22l-1.72 1.72V6c0-1.577.673-2.25 2.25-2.25h12c1.577 0 2.25.673 2.25 2.25v9Zm-5.666-6.595c.185 1.052-.255 1.992-1.239 2.646-.556.37-.632.557-.635.565a.767.767 0 0 1-.713.496.724.724 0 0 1-.245-.043.739.739 0 0 1-.463-.934c.203-.6.796-1.048 1.226-1.333.636-.423.643-.852.593-1.137a1.126 1.126 0 0 0-2.232.21.75.75 0 0 1-1.5 0c0-.778.342-1.511.938-2.011.596-.5 1.38-.71 2.157-.573a2.647 2.647 0 0 1 2.113 2.114ZM13.02 14a1 1 0 0 1-1 1 1.005 1.005 0 0 1-1.005-1c0-.552.443-1 .995-1h.01a1 1 0 0 1 1 1Z"/></svg>
